Adwaita++-Light/panel/24/battery-empty.svg

<svg height="24" width="24" xmlns="http://www.w3.org/2000/svg">
  <g fill="#4285f4" transform="translate(1 1)">
    <path d="m9 4v1h-3v12c0 .55.446 1 1 1h7v-10h2v-3h-3v-1z" opacity=".35"/>
    <path d="m15 9v5l.25 2h1.5l.25-2v-5zm0 8v2h2v-2z"/>
  </g>
</svg>

<svg xmlns="http://www.w3.org/2000/svg" width="24" height="24" version="1.1">
 <defs>
  <style id="current-color-scheme" type="text/css">
   .ColorScheme-Text { color:#444444; } .ColorScheme-Highlight { color:#4285f4; }
  </style>
 </defs>
 <g transform="matrix(1,0,0,1,1,1)">
  <path style="opacity:0.35;fill:currentColor" class="ColorScheme-Highlight" d="M 9 4 L 9 5 L 6 5 L 6 17 C 6 17.55 6.446 18 7 18 L 14 18 L 14 8 L 16 8 L 16 5 L 13 5 L 13 4 L 9 4 z"/>
  <path style="fill:currentColor" class="ColorScheme-Highlight" d="M 15,9 V 14 L 15.25,16 H 16.75 L 17,14 V 9 Z M 15,17 V 19 H 17 V 17 Z"/>
 </g>
</svg>
